!!!COM:	Josquin des Prez
!!!CDT:	~1450-1521/08/27
!!!OPR:	Missa L'homme arm&eacute; sexti toni
!!!ONM:	2
!!!OTL:	Gloria
!!!AGN:	Mass; Gloria
!!!SCT:	NJE 6.2
!!!SCA:	New Josquin Edition 6.2
!!!voices: 4
!!!voices-OPR: 4(-6)
**kern	**kern	**kern	**kern
*staff4	*staff3	*staff2	*staff1
*Ivox	*Ivox	*Ivox	*Ivox
*I"Bassus	*I"Tenor	*I"Altus	*I"Superius
*I'B	*I'T	*I'A	*I'S
*>[A,B]	*>[A,B]	*>[A,B]	*>[A,B]
*>Gloria[A]	*>Gloria[A]	*>Gloria[A]	*>Gloria[A]
*>QuiTollis[B]	*>QuiTollis[B]	*>QuiTollis[B]	*>QuiTollis[B]
*clefF4	*clefGv2	*clefGv2	*clefG2
*k[b-]	*k[b-]	*k[b-]	*k[b-]
*>A	*>A	*>A	*>A
*M3/1	*M3/1	*M3/1	*M3/1
*met(O)	*met(O)	*met(O)	*met(O)
=1-	=1-	=1-	=1-
!!section: Et in terra pax
!!!OMD: Et in terra pax
0.r	0.r	0F	0F
.	.	1F	2A/
.	.	.	2B-/
=2	=2	=2	=2
0.r	0.r	1F	1c
.	.	1.B-	1.d
.	.	2A/	4c/
.	.	.	4B-/
=3	=3	=3	=3
0.r	0.r	1A	2c/
.	.	.	2f/
.	.	2G/	2e/
.	.	2F/	1d
.	.	1G	.
.	.	.	4c/
.	.	.	4B-/
=4	=4	=4	=4
0.r	0.r	0F	1A
.	.	.	2r
.	.	.	2c/
.	.	2r	2c/
.	.	2c\	2c/
=5	=5	=5	=5
0.r	0.r	2c\	2.F/
.	.	2c\	.
.	.	.	4G/
.	.	2.F/	4A/
.	.	.	4F/
.	.	.	2.c/
.	.	4G/	.
.	.	4A/	.
.	.	4F/	4d/
.	.	[2c\	4e/
.	.	.	4c/
=6	=6	=6	=6
0.r	0.r	4c\]	2.g/
.	.	4B-\	.
.	.	4c\	.
.	.	4A/	4f/
.	.	2G/	4g/
.	.	.	4e/
.	.	2.B-\	2d/
.	.	.	2.f/
.	.	4A/	.
.	.	4B-\	.
.	.	4G/	4e/
=7	=7	=7	=7
0.r	0.r	2.F/	4f/
.	.	.	4d/
.	.	.	2.c/
.	.	4E/	.
.	.	4F/	.
.	.	4D/	4B-/
.	.	2C/	4c/
.	.	.	4A/
.	.	2.E-/	2G/
.	.	.	[2B-/
.	.	4D/	.
=8	=8	=8	=8
0.r	0.r	4E-i/	4B-/]
.	.	4C/	4A/
.	.	1BB-	4B-/
.	.	.	4A/
.	.	.	1F
.	.	1F	.
.	.	.	1G
.	.	2E/	.
=9	=9	=9	=9
2.FF/	[0.F	1.F	0F
4GG/	.	.	.
2AA/	.	.	.
2.BB-/	.	4E/	.
.	.	4F/	.
.	.	[1D	1r
4C/	.	.	.
4D\	.	.	.
4E\	.	.	.
=10	=10	=10	=10
2F\	0.F]	2D/]	1.A
1D	.	1F	.
4C/	.	4E/	2B-/
4BB-/	.	4D/	.
1AA	.	1C	1c
=11	=11	=11	=11
1GG	[0.B-	1G	1d
2GG/	.	2G/	2d/
2GG/	.	2G/	2d/
2GG/	.	2G/	2d/
2GG/	.	2G/	2d/
=12	=12	=12	=12
1.GG	0B-]	1.G	1.d
1.D	.	2F/	1f
.	1A	2D/	.
.	.	[2F/	4e/
.	.	.	4d/
=13	=13	=13	=13
1AA	[0.A	2F/]	1c
.	.	4E/	.
.	.	4D/	.
2AA/	.	1E	2c/
2AA/	.	.	2c/
2AA/	.	2E/	2c/
2AA/	.	2E/	2c/
=14	=14	=14	=14
1.AA	0A]	2E/	1.c
.	.	2E/	.
.	.	2E/	.
1.C	.	2C/	1e-
.	1G	[1E-i	.
.	.	.	4d/
.	.	.	4c/
=15	=15	=15	=15
1GG	[0.G	2E-/]	1B-
.	.	4D/	.
.	.	4C/	.
2GG/	.	1D	2B-/
2GG/	.	.	2B-/
2GG/	.	2D/	2B-/
2GG/	.	2D/	2B-/
=16	=16	=16	=16
1.GG	0G]	2D/	1.B-
.	.	1D	.
1.BB-	.	2BB-/	1d
.	1F	1D	.
.	.	.	4c/
.	.	.	4B-/
=17	=17	=17	=17
1.FF	[0.F	2C/	1A
.	.	1F	.
.	.	.	2r
1.BB-	.	2D/	1d
.	.	1D	.
.	.	.	4c/
.	.	.	4B-/
=18	=18	=18	=18
1.AA	0F]	2r	1c
.	.	1A	.
.	.	.	2r
1.D	.	2F/	1f
.	1r	1F	.
.	.	.	4e/
.	.	.	4d/
=19	=19	=19	=19
1.C	[0.c	2r	1e
.	.	1c	.
.	.	.	2r
1.F	.	2A/	1a
.	.	1A	.
.	.	.	4g/
.	.	.	4f/
=20	=20	=20	=20
2E\	1c]	2G/	2g/
2.F\	.	2F/	1a
.	0F	1.A	.
4E\	.	.	.
4D\	.	.	1f
4C/	.	.	.
1D	.	.	.
.	.	2B-\	4e/
.	.	.	4d/
=21	=21	=21	=21
0.C	0.r	0.c	1e
.	.	.	2r
.	.	.	2.e/
.	.	.	4f/
.	.	.	2g/
=22	=22	=22	=22
0.r	0.r	2r	2.c/
.	.	2.c\	.
.	.	.	4d/
.	.	.	2e/
.	.	4d\	.
.	.	2e\	2.A/
.	.	2.A/	.
.	.	.	4B-/
.	.	.	2c/
.	.	4B-\	.
=23	=23	=23	=23
0.r	0.r	2c\	2.F/
.	.	2.F/	.
.	.	.	4G/
.	.	.	4A/
.	.	4G/	4B-/
.	.	4A/	2.c/
.	.	4B-\	.
.	.	[1c	.
.	.	.	4d/
.	.	.	4e/
.	.	.	4f/
=24	=24	=24	=24
0.r	0.r	2c\]	4g/
.	.	.	4a/
.	.	2.d\	1b-
.	.	4c\	.
.	.	2A/	1a
.	.	1B-	.
.	.	.	2g/
=25	=25	=25	=25
2r	[0.c	1A	2a/
2.A\	.	.	2.cc\
.	.	2r	.
4G\	.	.	4b-\
2F\	.	2.c\	2a/
2E\	.	.	2g/
.	.	4B-\	.
2F\	.	2A/	2f/
=26	=26	=26	=26
2C/	0.c_	2G/	2e/
2r	.	2F/	2A/
2.C/	.	2E/	2G/
.	.	2A/	2.c/
4D\	.	.	.
2E\	.	2G/	.
.	.	.	4B-/
2F\	.	[2c\	2A/
=27	=27	=27	=27
2E\	0.c]	4c\]	2G/
.	.	4B-\	.
2F\	.	2A/	2F/
2C/	.	2G/	2E/
2.FF/	.	2.F/	4F/
.	.	.	4G/
.	.	.	4A/
4GG/	.	4E/	4B-/
4AA/	.	2C/	4c/
4BB-/	.	.	4d/
=28	=28	=28	=28
4C/	2c\	1G	4e/
4D\	.	.	4f/
1E-	1B-	.	1g
.	.	2r	.
2F\	2A/	1.c	1f
1C	1G	.	.
.	.	.	2e/
=29	=29	=29	=29
[0.FF	[0.F	2.A/	2f/
.	.	.	2.F/
.	.	4B-\	.
.	.	1c	.
.	.	.	4G/
.	.	.	4A/
.	.	.	4B-/
.	.	1r	2c/
.	.	.	2d/
=30	=30	=30	=30
0FF]	0.F]	1C	0.A
.	.	2D/	.
.	.	2C/	.
1r	.	1F	.
=31	=31	=31	=31
1C	0.r	1E	0.r
2D\	.	2r	.
2C/	.	2.c\	.
1F	.	.	.
.	.	4B-\	.
.	.	2A/	.
=32	=32	=32	=32
1E	0.r	2G/	0.r
.	.	2.C/	.
2.C/	.	.	.
.	.	4D/	.
.	.	4E/	.
4D\	.	4F/	.
4E\	.	4G/	.
4F\	.	4A/	.
2D\	.	4B-\	.
.	.	4c\	.
=33	=33	=33	=33
2C/	0.r	4A/	0.r
.	.	4G/	.
2D\	.	1B-	.
1AA	.	.	.
.	.	1A	.
1BB-	.	.	.
.	.	2G/	.
=34	=34	=34	=34
0AA	0.r	1A	2r
.	.	.	2.c/
.	.	1.c	.
.	.	.	4d/
.	.	.	4e/
.	.	.	4f/
1r	.	.	4g/
.	.	.	4a/
.	.	2d\	4b-\
.	.	.	4cc\
=35	=35	=35	=35
0.r	0.r	2c\	4a/
.	.	.	4g/
.	.	2d\	1b-
.	.	1A	.
.	.	.	1a
.	.	1B-	.
.	.	.	2g/
=36	=36	=36	=36
2r	[0.c	2A/	1a
2.AA/	.	2.c\	.
.	.	.	1r
4BB-/	.	4B-\	.
2C/	.	2G/	.
2FF/	.	2.A/	2r
[2AA/	.	.	[2cc\
.	.	4G/	.
=37	=37	=37	=37
4AA/]	0.c]	1E	4cc\]
4BB-/	.	.	4b-\
2C/	.	.	2g/
1FF	.	1F	2.a/
.	.	.	4g/
1C	.	1G	1e
=38	=38	=38	=38
2r	[0.F	2A/	2r
2.D\	.	2.F/	2.f/
4C/	.	4G/	4e/
2AA/	.	2A/	2c/
2.BB-/	.	2.D/	2.d/
4AA/	.	4E/	4c/
=39	=39	=39	=39
0FF	0.F]	2F/	1A
.	.	2C/	.
.	.	1.c	1r
1r	.	.	1f
.	.	2c\	.
=40	=40	=40	=40
1.C	0.r	2.c\	2e/
.	.	.	2.g/
.	.	4B-\	.
.	.	2G/	.
.	.	.	4f/
2BB-/	.	2.B-\	2.d/
2.D\	.	.	.
.	.	4A/	2f/
.	.	4F/	.
4E\	.	4G/	4e/
=41	=41	=41	=41
2.F\	0.r	4A/	1c
.	.	4B-\	.
.	.	2c\	.
4E\	.	.	.
2D\	.	4B-\	1r
.	.	8A/L	.
.	.	8B-/J	.
2C/	.	1A	.
2.BB-/	.	.	1r
.	.	2G/	.
8AA/L	.	.	.
8GG/J	.	.	.
=42	=42	=42	=42
1FF	0.r	1A	1c
1r	.	2G/	2B-/
.	.	2A/	1A
1r	.	2.B-\	.
.	.	.	2G/
.	.	4A/	.
=43	=43	=43	=43
0.r	0.r	2F/	1A
.	.	2c\	.
.	.	4B-\	2G/
.	.	8A/L	.
.	.	8B-/J	.
.	.	1A	2A/
.	.	.	2.B-/
.	.	2G/	.
.	.	.	4A/
=44	=44	=44	=44
2.F\	0.r	1A	2F/
.	.	.	2c/
4E\	.	.	.
2D\	.	1r	2B-/
2C/	.	.	1A
1BB-	.	1D	.
.	.	.	2G/
=45	=45	=45	=45
0AA	[0.c	1.E	1A
.	.	.	2r
.	.	1.F	2.A/
1FF	.	.	.
.	.	.	4B-/
.	.	.	4c/
.	.	.	4d/
=46	=46	=46	=46
1C	1c]	0.G	4e/
.	.	.	4f/
.	.	.	1g
0GG	0B-	.	.
.	.	.	4f/
.	.	.	4e/
.	.	.	1d
=47	=47	=47	=47
1AA	[0.A	2C/	1c
.	.	2.F/	.
2r	.	.	2.F/
.	.	4G/	.
2.FF/	.	4A/	.
.	.	4B-\	4G/
.	.	1c	4A/
4GG/	.	.	4B-/
4AA/	.	.	4c/
4BB-/	.	.	4d/
=48	=48	=48	=48
2C/	1A]	2r	2e/
2D\	.	2F/	2f/
1E-	0G	4E-/	2g/
.	.	4C/	.
.	.	2.G/	2.b-\
1EE-	.	.	.
.	.	4F/	8a/L
.	.	.	8g/J
.	.	4E-i/	2b-\
.	.	4D/	.
=49	=49	=49	=49
2.FF/	1F	2C/	2a/
.	.	2F/	2.cc\
4GG/	.	.	.
2AA/	2r	2Eni/	.
.	.	.	4b-\
2FF/	2.c\	2F/	4a/
.	.	.	4g/
2.C/	.	4C/	2a/
.	4B-\	4D/	.
.	2G/	4E/	[2g/
4BB-/	.	4F/	.
=50	=50	=50	=50
2GG/	2.B-\	2G/	4g/]
.	.	.	8f/L
.	.	.	8e/J
2.BB-/	.	1F	4d/
.	4A/	.	4c/
.	2F/	.	4d/
4AA/	.	.	4c/
2FF/	2A/	1.c	1f
1C	1G	.	.
.	.	.	2e/
=51	=51	=51	=51
[0.FFl	[0.Fl	2.A/	[0.fl
.	.	4B-\	.
.	.	2c\	.
.	.	2C/	.
.	.	1D	.
=52	=52	=52	=52
0.FF]	0.F]	0.Cl	0.f]
!!LO:LB:i:g=z
=53||	=53||	=53||	=53||
*>B	*>B	*>B	*>B
!!section: Qui tollis
!!!OMD: Qui tollis
*M2/1	*M2/1	*M2/1	*M2/1
*met(C|)	*met(C|)	*met(C|)	*met(C|)
0r	0r	1.F	0f
.	.	2G/	.
=54	=54	=54	=54
0r	0r	1A	1c
.	.	1A	[1f
=55	=55	=55	=55
0r	0r	1B-	1f]
.	.	2A/	[1f
.	.	[2B-\	.
=56	=56	=56	=56
0r	0r	4B-\]	2f/]
.	.	4A/	.
.	.	4G/	4g/
.	.	4F/	4a/
.	.	1G	1b-
=57	=57	=57	=57
0r	0r	2F/	1a
.	.	2.c\	.
.	.	.	2g/
.	.	4B-\	.
.	.	4A/	[2a/
.	.	4G/	.
=58	=58	=58	=58
0r	0r	1F	4a/]
.	.	.	4g/
.	.	.	4f/
.	.	.	4e/
.	.	2G/	2d/
.	.	[2A/	2c/
=59	=59	=59	=59
0r	0r	4A/]	1.f
.	.	4G/	.
.	.	4F/	.
.	.	4E/	.
.	.	4D/	.
.	.	4C/	.
.	.	[2c\	2e/
=60	=60	=60	=60
0r	0r	2c\]	1d
.	.	2Bni\	.
.	.	1c	1c
=61	=61	=61	=61
0FF	1r	1r	1r
.	1F	1c	[1f
=62	=62	=62	=62
1FF	1F	1c	1f]
[1BB-	1F	[1d	1f
=63	=63	=63	=63
1BB-]	1.D	1d]	1f
1BB-	.	1D	1g
.	4C/	.	.
.	4BB-/	.	.
=64	=64	=64	=64
1AA	1C	2E/	1a
.	.	2F/	.
[1GG	1D	[1G	[1b-
=65	=65	=65	=65
1GG]	1E	1G]	2b-\]
.	.	.	4a/
.	.	.	4g/
1FF	1F	1C	1a
=66	=66	=66	=66
0r	2r	1r	0r
.	2F/	.	.
.	2E/	1c	.
.	[2F/	.	.
=67	=67	=67	=67
0r	2F/]	1c	0r
.	4E/	.	.
.	4D/	.	.
.	2C/	1c	.
.	[2F/	.	.
=68	=68	=68	=68
0r	4F/]	1d	0r
.	4E/	.	.
.	4D/	.	.
.	4C/	.	.
.	2BB-/	1d	.
.	[2B-\	.	.
=69	=69	=69	=69
0r	4B-\]	4G/	0r
.	4A/	4A/	.
.	4G/	4B-\	.
.	4F/	4c\	.
.	2B-\	2d\	.
.	[2A/	[2c\	.
=70	=70	=70	=70
0r	2A/]	2c\]	0r
.	1G	2B-\	.
.	.	1A	.
.	2F#i/	.	.
=71	=71	=71	=71
0r	0G	0G	0r
=72	=72	=72	=72
1r	1r	1r	1r
[1C	[1c	[1E	[1g
=73	=73	=73	=73
1C]	1c]	1E]	1g]
1C	1c	1E	1g
=74	=74	=74	=74
0FF	1c	2.F/	1.a
.	.	4E/	.
.	2r	4D/	.
.	.	4C/	.
.	[2c\	[2F/	4g/
.	.	.	4f/
=75	=75	=75	=75
0r	2c\]	2F/]	1a
.	2c\	4E/	.
.	.	4D/	.
.	2c\	1C	2r
.	2c\	.	[2g/
=76	=76	=76	=76
0r	1c	0r	2g/]
.	.	.	2g/
.	2.C/	.	2g/
.	.	.	2g/
.	4D/	.	.
=77	=77	=77	=77
0r	4E/	0r	1.g
.	4F/	.	.
.	4G/	.	.
.	4A/	.	.
.	4B-\	.	.
.	4c\	.	.
.	[2d\	.	[2f/
=78	=78	=78	=78
0r	2d\]	0r	2f/]
.	1c	.	2e/
.	.	.	1d
.	2Bni\	.	.
=79	=79	=79	=79
1r	2.c\	[0C	1.c
.	4B-\	.	.
[1C	2A/	.	.
.	2G/	.	2B-/
=80	=80	=80	=80
2C/]	1c	1C]	2A/
2C/	.	.	2G/
2C/	2r	[1E-	1c
2C/	[2c\	.	.
=81	=81	=81	=81
1.C	4c\]	2E-/]	2r
.	4B-\	.	.
.	2G/	4D/	1c
.	.	4C/	.
.	2A/	2E-i/	.
[2BB-/	4B-\	[2D/	2F/
.	4A/	.	.
=82	=82	=82	=82
2BB-/]	4G/	2D/]	2G/
.	4F/	.	.
2AA/	1F	1C	2A/
1GG	.	.	1B-
.	2E/	2BB-/	.
=83	=83	=83	=83
0FF	0F	0C	[0A
=84	=84	=84	=84
0r	2r	1r	0A]
.	2D/	.	.
.	2C/	[1c	.
.	[2F/	.	.
=85	=85	=85	=85
0r	4F/]	1c]	0r
.	4G/	.	.
.	4A/	.	.
.	4B-\	.	.
.	2c\	1F	.
.	[2F/	.	.
=86	=86	=86	=86
0r	2F/]	1.c	0r
.	4E/	.	.
.	4D/	.	.
.	2.C/	.	.
.	.	4B-\	.
.	4D/	4A/	.
=87	=87	=87	=87
0r	4E/	2.G/	0r
.	4F/	.	.
.	1G	.	.
.	.	4A/	.
.	.	4B-\	.
.	.	4c\	.
.	2F/	[2d\	.
=88	=88	=88	=88
0r	1.G	4d\]	0r
.	.	4c\	.
.	.	4d\	.
.	.	4B-\	.
.	.	2e-i\	.
.	[2F/	[2d\	.
=89	=89	=89	=89
0r	2F/]	4d\]	0r
.	.	4c\	.
.	2E/	1c	.
.	1D	.	.
.	.	2B-\	.
=90	=90	=90	=90
0r	0C	2c\	0r
.	.	2A/	.
.	.	2G/	.
.	.	[2c\	.
=91	=91	=91	=91
0F	1r	4c\]	1r
.	.	4B-\	.
.	.	4A/	.
.	.	4G/	.
.	1c	1F	2r
.	.	.	[2A/
=92	=92	=92	=92
1F	1.c	1r	2A/]
.	.	.	2A/
[1E	.	[1C	2G/
.	4B-\	.	[2c/
.	4A/	.	.
=93	=93	=93	=93
1E]	1G	0C]	2c/]
.	.	.	4B-/
.	.	.	4A/
1E	1G	.	2G/
.	.	.	[2c/
=94	=94	=94	=94
1F	1A	2.F/	1c]
.	.	4G/	.
[1D	[1F	2A/	2d/
.	.	2F/	[2f/
=95	=95	=95	=95
1D]	1F]	2.A/	2f/]
.	.	.	4e/
.	.	4B-\	4d/
1C	1G	1c	1e
=96	=96	=96	=96
0r	0r	1r	2r
.	.	.	1a
.	.	1F	.
.	.	.	2a/
=97	=97	=97	=97
0r	0r	2E/	2g/
.	.	1F	2f/
.	.	.	2.cc\
.	.	2F/	.
.	.	.	4b-\
=98	=98	=98	=98
0r	0r	2E/	2g/
.	.	2F/	2f/
.	.	1G	1b-
=99	=99	=99	=99
0r	2.c\	1F	2.a/
.	4B-\	.	4g/
.	4A/	1r	4f/
.	4G/	.	4e/
.	[2B-\	.	[2d/
=100	=100	=100	=100
0r	2B-\]	0r	2d/]
.	1A	.	2c/
.	.	.	1B-
.	2G/	.	.
=101	=101	=101	=101
0F	2.A/	2r	0A
.	.	2.c\	.
.	4B-\	.	.
.	1c	.	.
.	.	4B-\	.
.	.	4A/	.
.	.	4G/	.
=102	=102	=102	=102
1F	1r	2F/	0r
.	.	2A/	.
[1E	2r	1G	.
.	[2C/	.	.
=103	=103	=103	=103
0E]	4C/]	1C	0r
.	4D/	.	.
.	4E/	.	.
.	4F/	.	.
.	2G/	1r	.
.	[2c\	.	.
=104	=104	=104	=104
1F	4c\]	1.A	1r
.	4B-\	.	.
.	4A/	.	.
.	4G/	.	.
[1D	[1F	.	1f
.	.	4G/	.
.	.	4F/	.
=105	=105	=105	=105
1D]	1F]	2A/	1f
.	.	2B-\	.
1C	1G	1c	2.e/
.	.	.	4f/
=106	=106	=106	=106
0r	0r	1r	2g/
.	.	.	2a/
.	.	1C	2g/
.	.	.	[2a/
=107	=107	=107	=107
0r	0r	1F	2a/]
.	.	.	2f/
.	.	2E/	2g/
.	.	[2F/	2a/
=108	=108	=108	=108
0r	0r	4F/]	2.cc\
.	.	4G/	.
.	.	4A/	.
.	.	4B-\	4b-\
.	.	2c\	4a/
.	.	.	4g/
.	.	[2d\	[2b-\
=109	=109	=109	=109
0r	0r	2d\]	2b-\]
.	.	2A/	1a
.	.	1B-	.
.	.	.	2g/
=110	=110	=110	=110
1r	1.c	0A	0a
1F	.	.	.
.	4B-\	.	.
.	4A/	.	.
=111	=111	=111	=111
0G	2B-\	0r	0r
.	4c\	.	.
.	4d\	.	.
.	2e-\	.	.
.	[2d\	.	.
=112	=112	=112	=112
1F	4d\]	0r	0r
.	4c\	.	.
.	4B-\	.	.
.	4A/	.	.
1E	2G/	.	.
.	[2c\	.	.
=113	=113	=113	=113
0D	2c\]	1r	1r
.	4B-\	.	.
.	4A/	.	.
.	1B-	1d	1f
=114	=114	=114	=114
0C	0E-	1.e-	0g
.	.	4d\	.
.	.	4c\	.
=115	=115	=115	=115
0r	0r	4d\	1f
.	.	4c\	.
.	.	4B-\	.
.	.	4A/	.
.	.	2G/	1e
.	.	2A/	.
=116	=116	=116	=116
0r	1r	2B-\	0d
.	.	2c\	.
.	1B-	1G	.
=117	=117	=117	=117
0r	0c	1r	1.c
.	.	1C	.
.	.	.	4B-/
.	.	.	4A/
=118	=118	=118	=118
0r	1B-	1E	2.G/
.	.	.	4F/
.	1A	1F	[1f
=119	=119	=119	=119
0r	0G	0C	1f]
.	.	.	1e
=120	=120	=120	=120
0r	[0F	0c	0f
=121	=121	=121	=121
*M3/1	*	*M3/1	*M3/1
*met(3)	*	*met(3)	*met(3)
!	!LO:N:vis=0	!	!
0FF	0.F]	1.A	0f
.	.	2B-\	.
1FF	.	1c	1f
=122	=122	=122	=122
*	*M3/1	*	*
*	*met(3)	*	*
0BB-	0D	2F/	0f
.	.	1B-	.
.	.	2A/	.
1BB-	1D	2G/	1g
.	.	2F/	.
=123	=123	=123	=123
1AA	1C	0F	1a
0GG	0BB-	.	0b-
.	.	1E	.
=124	=124	=124	=124
0FF	0C	0F	0a
1r	1r	1r	1r
=125	=125	=125	=125
1C	1c	1E	1g
1C	1c	1E	1g
1C	1c	1E	1g
=126	=126	=126	=126
0FF	0c	0F	0a
1r	1r	1r	1r
=127	=127	=127	=127
0.r	0C	0.r	0g
.	1D	.	1f
=128	=128	=128	=128
0.r	1C	0c	1e
.	0G	.	0d
.	.	1B-	.
=129	=129	=129	=129
0C	0C	1A	0c
.	.	0G	.
1BB-	1r	.	1d
=130	=130	=130	=130
1AA	0c	1C	1c
0GG	.	0G	1.d
.	1B-	.	.
.	.	.	2e/
=131	=131	=131	=131
1FF	1A	1C	1f
1EE	1.G	1E	1g
[1FF	.	2D/	[1a
.	2F/	2C/	.
=132	=132	=132	=132
1FF]	0F	0C	1a]
0GG	.	.	0b-
.	1E	1BB-	.
=133	=133	=133	=133
*M2/1	*M2/1	*M2/1	*M2/1
*met(C|)	*met(C|)	*met(C|)	*met(C|)
1.FF	1.F	0C	1a
.	.	.	[1cc
2GG/	4E/	.	.
.	4D/	.	.
=134	=134	=134	=134
2AA/	2C/	1.c	2cc\]
2BB-/	2D/	.	2b-\
2C/	2E/	.	1g
2D\	2F/	4B-\	.
.	.	4A/	.
=135	=135	=135	=135
2E\	2G/	2G/	2r
1F	2A/	2F/	1a
.	1F	1A	.
2D\	.	.	4g/
.	.	.	4f/
=136	=136	=136	=136
2E\	2r	2G/	1g
1C	1c	2E/	.
.	.	2G/	2e/
[2D\	2A/	2F/	[2f/
=137	=137	=137	=137
2D\]	1B-	2D/	2f/]
2BB-/	.	2F/	4e/
.	.	.	4d/
2C/	2G/	2E/	1e
[2AA/	[2A/	2C/	.
=138	=138	=138	=138
2AA/]	2A/]	2E/	2c/
1BB-	2F/	2D/	1d
.	1G	2BB-/	.
2GG/	.	2D/	4c/
.	.	.	4B-/
=139	=139	=139	=139
2AA/	2E/	2C/	1c
1FF	1F	1c	.
.	.	.	2A/
[2GG/	2D/	4B-\	[2B-/
.	.	4A/	.
=140	=140	=140	=140
2GG/]	1E-	1G	2B-/]
2EE/	.	.	4A/
.	.	.	4G/
1FF	[1C	1F	2A/
.	.	.	[2c/
=141	=141	=141	=141
0C	1C]	[0E	2c/]
.	.	.	4B-/
.	.	.	4A/
.	1C	.	1G
=142	=142	=142	=142
0r	0C	0E]	0c
=143	=143	=143	=143
2.C/	0r	2r	0r
.	.	2.c\	.
4BB-/	.	.	.
4AA/	.	.	.
4GG/	.	4B-\	.
2FF/	.	4A/	.
.	.	4G/	.
=144	=144	=144	=144
2AA/	0r	4F/	0r
.	.	4E/	.
2BB-/	.	4D/	.
.	.	4C/	.
1C	.	4E/	.
.	.	4F/	.
.	.	[2G/	.
=145	=145	=145	=145
1FF	0r	2G/]	0r
.	.	1F	.
1GG	.	.	.
.	.	2E/	.
=146	=146	=146	=146
1FF	2.c\	1F	2r
.	.	.	2.cc\
.	4B-\	.	.
2r	4A/	[1c	.
.	4G/	.	4b-\
[2F\	2F/	.	4a/
.	.	.	4g/
=147	=147	=147	=147
2F\]	2A/	2c\]	4f/
.	.	.	4e/
2G\	2B-\	2B-\	4d/
.	.	.	4c/
2E\	1c	2G/	4e/
.	.	.	4f/
2C/	.	2c\	[2g/
=148	=148	=148	=148
1D	1F	2A/	2g/]
.	.	2B-\	1f
1C	1G	[1c	.
.	.	.	2e/
=149	=149	=149	=149
2AA/	[0Fl	2c\]	[0fl
1BB-	.	1d	.
4AA/	.	4c\	.
4GG/	.	4B-\	.
=150	=150	=150	=150
[0FFl	0F_	2c\	0f_
.	.	2d\	.
.	.	2c\	.
.	.	2d\	.
=151	=151	=151	=151
0FF]	0F]	0Al	0f]
==	==	==	==
*-	*-	*-	*-
!!!RDF**kern: %=rational rhythm
!!!rscale-alt: 1/4
!!!RDF**kern: l=long note in original notation
!!!RDF**kern: i=editorial accidental
!!!ENC: Jesse Rodin; Victoria Chang 2011/09/04
!!!END: 2011/09/04/
!!!SMS: Petrucci 1502
!!!EED: Jesse Rodin
!!!EEV: 2011/10/03/
!!attribution-level@Jos: 1 (secure)
!!!ONB: Translated from MusicXML and edited on 2011/10/03/ by Craig Sapp
!!muse2ps: T^@{OPR}^u^@{ONM}{. }@{OTL}^C^@{COM}\n@{SCT}^i2I100v95,90,85,150Q16
